src/assets/icon/trash.svg

<svg width="15" height="15" viewBox="0 0 15 15" fill="none" xmlns="http://www.w3.org/2000/svg">
<path d="M3.75 11.875C3.75 12.5625 4.3125 13.125 5 13.125H10C10.6875 13.125 11.25 12.5625 11.25 11.875V4.375H3.75V11.875ZM11.875 2.5H9.6875L9.0625 1.875H5.9375L5.3125 2.5H3.125V3.75H11.875V2.5Z" fill="#5959A6"/>
</svg>

<svg xmlns="http://www.w3.org/2000/svg" width="15" height="15" fill="none"><path fill="#5959A6" d="M3.75 11.875c0 .688.563 1.25 1.25 1.25h5c.688 0 1.25-.563 1.25-1.25v-7.5h-7.5v7.5ZM11.875 2.5H9.687l-.624-.625H5.937l-.625.625H3.126v1.25h8.75V2.5Z"/></svg>
